icons/linear-ele-tool-edit-magnifier-close.svg

<svg xmlns="http://www.w3.org/2000/svg" width="32px" height="32px" viewBox="0 0 32 32" version="1.1">
    <title>linear-ele-tool-edit-magnifier-close</title>
    <g id="linear-ele-tool-edit-magnifier-close" stroke-width="1" fill-rule="evenodd">
        <path d="M15,2 C22.1797017,2 28,7.82029825 28,15 C28,18.2296841 26.8222516,21.1842904 24.8728079,23.4577656 L29.7071068,28.2928932 C30.0976311,28.6834175 30.0976311,29.3165825 29.7071068,29.7071068 C29.3165825,30.0976311 28.6834175,30.0976311 28.2928932,29.7071068 L23.4577656,24.8728079 C21.1842904,26.8222516 18.2296841,28 15,28 C7.82029825,28 2,22.1797017 2,15 C2,7.82029825 7.82029825,2 15,2 Z M15,4 C8.92486775,4 4,8.92486775 4,15 C4,21.0751322 8.92486775,26 15,26 C21.0751322,26 26,21.0751322 26,15 C26,8.92486775 21.0751322,4 15,4 Z M12.7071068,11.2928932 L15,13.585 L17.2928932,11.2928932 C17.6834175,10.9023689 18.3165825,10.9023689 18.7071068,11.2928932 C19.0976311,11.6834175 19.0976311,12.3165825 18.7071068,12.7071068 L16.415,15 L18.7071068,17.2928932 C19.0976311,17.6834175 19.0976311,18.3165825 18.7071068,18.7071068 C18.3165825,19.0976311 17.6834175,19.0976311 17.2928932,18.7071068 L15,16.415 L12.7071068,18.7071068 C12.3165825,19.0976311 11.6834175,19.0976311 11.2928932,18.7071068 C10.9023689,18.3165825 10.9023689,17.6834175 11.2928932,17.2928932 L13.585,15 L11.2928932,12.7071068 C10.9023689,12.3165825 10.9023689,11.6834175 11.2928932,11.2928932 C11.6834175,10.9023689 12.3165825,10.9023689 12.7071068,11.2928932 Z" id="&#24418;&#29366;" fill-rule="nonzero" />
    </g>
</svg>

<svg xmlns="http://www.w3.org/2000/svg" viewBox="0 0 32 32"><path fill="currentColor" d="M15 2c7.18 0 13 5.82 13 13 0 3.23-1.178 6.184-3.127 8.458l4.834 4.835a1 1 0 0 1-1.414 1.414l-4.835-4.834A12.949 12.949 0 0 1 15 28C7.82 28 2 22.18 2 15S7.82 2 15 2m0 2C8.925 4 4 8.925 4 15s4.925 11 11 11 11-4.925 11-11S21.075 4 15 4m-2.293 7.293L15 13.585l2.293-2.292a1 1 0 0 1 1.414 1.414L16.415 15l2.292 2.293a1 1 0 0 1-1.414 1.414L15 16.415l-2.293 2.292a1 1 0 0 1-1.414-1.414L13.585 15l-2.292-2.293a1 1 0 0 1 1.414-1.414"/></svg>
